X:2
T:By Myself
C:Martin & Blane
L:1/4
M:C
I:linebreak $
K:B
"A#ø" c c (3c B c |"D#7" d c/A/- A2 |"A#ø" (3c c c (3c B c |"D#7" d2"A#m" x4"F#o" z2 "D#7" x4|$
"F#m" d d"B7" (3d c d |"E" f d"A7" c B |$"C#m" e c"F#7" (3B c d ||1"B" f4 "E" x4:|2"B" f4 ||$
"Fø" g g (3g f g |"A#7" a4 |"D#ø" (3f f f (3f e f |"G#7" g4 |$"C#ø" e e"F#7" (3e d e |
"D#m" f d"G#m" c B |"C#7" g d"F#7" c c |"B" B4 |]

